Newaita-dark/apps/48/qelectrotech.svg

<svg height="48pt" viewBox="0 0 48 48" width="48pt" xmlns="http://www.w3.org/2000/svg" xmlns:xlink="http://www.w3.org/1999/xlink"><linearGradient id="a" gradientUnits="userSpaceOnUse" x1="23.81478" x2="23.81478" y1="42.0509045" y2="44.03547050005"><stop offset="0" stop-opacity=".27451"/><stop offset="1" stop-opacity="0"/></linearGradient><linearGradient id="b"><stop offset="0" stop-opacity=".313726"/><stop offset=".222222" stop-opacity=".27451"/><stop offset="1" stop-opacity="0"/></linearGradient><radialGradient id="c" cx="450.908936" cy="189.579361" gradientTransform="matrix(.00000026 -.117199 -.210958 -.00000015 79.684395 95.392999)" gradientUnits="userSpaceOnUse" r="21.166656" xlink:href="#b"/><radialGradient id="d" cx="450.908936" cy="189.579361" gradientTransform="matrix(-.00000026 .117199 .210958 .00000015 -31.80678 -11.291218)" gradientUnits="userSpaceOnUse" r="21.166656" xlink:href="#b"/><radialGradient id="e" cx="450.908936" cy="189.579361" gradientTransform="matrix(-.00000026 -.117199 .210958 -.00000015 -31.80678 95.392999)" gradientUnits="userSpaceOnUse" r="21.166656" xlink:href="#b"/><radialGradient id="f" cx="450.908936" cy="189.579361" gradientTransform="matrix(.00000026 .117199 -.210958 .00000015 79.684393 -11.291219)" gradientUnits="userSpaceOnUse" r="21.166656" xlink:href="#b"/><linearGradient id="g" gradientUnits="userSpaceOnUse" x1="23.814786" x2="23.814786" y1="42.0509015" y2="4.3441580001"><stop offset="0" stop-color="#a1887f"/><stop offset="1" stop-color="#bcaaa4"/></linearGradient><linearGradient id="h" gradientTransform="matrix(.0848295 0 0 .0838896 2.268074 20.478107)" gradientUnits="userSpaceOnUse" x1="254" x2="254" y1="233.5" y2="-168.666656"><stop offset="0" stop-color="#5c6bc0"/><stop offset="1" stop-color="#7986cb"/></linearGradient><path d="m7.691406 42.050781h32.496094v1.984375h-32.496094zm0 0" fill="url(#a)"/><path d="m40.1875 42.050781h3.96875v-1.984375h-3.96875zm0 0" fill="url(#c)"/><path d="m7.691406 42.050781h-3.96875v1.984375h3.96875zm0 0" fill="url(#d)"/><path d="m7.691406 42.050781h-3.96875v-1.984375h3.96875zm0 0" fill="url(#e)"/><path d="m40.1875 42.050781h3.96875v1.984375h-3.96875zm0 0" fill="url(#f)"/><path d="m4.960938 4.34375h37.707031c1.097656 0 1.984375.890625 1.984375 1.984375v33.738281c0 1.097656-.886719 1.984375-1.984375 1.984375h-37.707031c-1.09375 0-1.984376-.886719-1.984376-1.984375v-33.738281c0-1.09375.890626-1.984375 1.984376-1.984375zm0 0" fill="url(#g)"/><path d="m4.960938 4.34375c-1.097657 0-1.984376.886719-1.984376 1.984375v.496094c0-1.097657.886719-1.984375 1.984376-1.984375h37.707031c1.101562 0 1.984375.886718 1.984375 1.984375v-.496094c0-1.097656-.882813-1.984375-1.984375-1.984375zm0 0" fill="#fbfbfb" fill-opacity=".392157"/><path d="m4.960938 42.050781c-1.097657 0-1.984376-.886719-1.984376-1.984375v-.496094c0 1.097657.886719 1.984376 1.984376 1.984376h37.707031c1.101562 0 1.984375-.886719 1.984375-1.984376v.496094c0 1.097656-.882813 1.984375-1.984375 1.984375zm0 0" fill-opacity=".235294"/><path d="m4.960938 4.203125c-1.175782 0-2.125.949219-2.125 2.125v33.738281c0 1.175782.949218 2.125 2.125 2.125h37.707031c1.175781 0 2.125-.949218 2.125-2.125v-33.738281c0-1.175781-.949219-2.125-2.125-2.125zm0 .28125h37.707031c1.023437 0 1.84375.820313 1.84375 1.84375v33.738281c0 1.023438-.820313 1.84375-1.84375 1.84375h-37.707031c-1.023438 0-1.84375-.820312-1.84375-1.84375v-33.738281c0-1.023437.820312-1.84375 1.84375-1.84375zm0 0" fill="#212121"/><path d="m6.449219 6.328125h34.730469c.820312 0 1.488281.667969 1.488281 1.488281v30.761719c0 .820313-.667969 1.488281-1.488281 1.488281h-34.730469c-.820313 0-1.488281-.667968-1.488281-1.488281v-30.761719c0-.820312.667968-1.488281 1.488281-1.488281zm0 0" fill="url(#h)"/><path d="m4.960938 38.578125v.496094c0 .824219.664062 1.488281 1.488281 1.488281h34.730469c.824218 0 1.488281-.664062 1.488281-1.488281v-.496094c0 .824219-.664063 1.488281-1.488281 1.488281h-34.730469c-.824219 0-1.488281-.664062-1.488281-1.488281zm0 0" fill="#fff" fill-opacity=".392157"/><path d="m6.449219 6.328125c-.824219 0-1.488281.664063-1.488281 1.488281v.746094c0-.824219.664062-1.488281 1.488281-1.488281h34.730469c.824218 0 1.488281.664062 1.488281 1.488281v-.746094c0-.824218-.664063-1.488281-1.488281-1.488281zm0 0" fill-opacity=".235294"/><path d="m68.785098-147.506445h370.42296c8.749164 0 15.873484 7.124319 15.873484 15.873484v328.093668c0 8.749165-7.12432 15.873485-15.873484 15.873485h-370.42296c-8.749164 0-15.873484-7.12432-15.873484-15.873485v-328.093668c0-8.749165 7.12432-15.873484 15.873484-15.873484zm0 0" fill="none" stroke="#212121" stroke-linecap="round" stroke-linejoin="round" stroke-width="3" transform="matrix(.093759 0 0 .093759 0 20.158175)"/><path d="m19.84375 16.5c-3.59375 0-6.535156 2.707031-6.90625 6.203125h-2.023438v1.488281h2.023438c.371094 3.492188 3.3125 6.199219 6.90625 6.199219 3.597656 0 6.539062-2.707031 6.910156-6.199219h5.992188v2.726563c0 .277343.21875.496093.496094.496093h.496093c.273438 0 .496094-.21875.496094-.496093v-7.195313c0-.273437-.222656-.496094-.496094-.496094h-.496093c-.277344 0-.496094.222657-.496094.496094v2.980469h-5.992188c-.371094-3.496094-3.3125-6.203125-6.910156-6.203125zm0 1.488281c1.242188 0 2.386719.410157 3.300781 1.105469l-3.300781 3.300781-3.296875-3.300781c.914063-.695312 2.054687-1.105469 3.296875-1.105469zm-4.351562 2.15625 3.300781 3.300781-3.300781 3.300782c-.691407-.914063-1.105469-2.058594-1.105469-3.300782 0-1.242187.414062-2.382812 1.105469-3.300781zm8.707031 0c.691406.917969 1.105469 2.058594 1.105469 3.300781 0 1.242188-.414063 2.386719-1.105469 3.300782l-3.300781-3.300782zm11.523437.324219c-.273437 0-.496094.222656-.496094.496094v4.960937c0 .273438.222657.496094.496094.496094h.496094c.273438 0 .496094-.222656.496094-.496094v-4.960937c0-.273438-.222656-.496094-.496094-.496094zm-15.878906 4.03125 3.300781 3.296875c-.914062.695313-2.058593 1.105469-3.300781 1.105469s-2.382812-.410156-3.296875-1.105469zm0 0" fill="#fff" fill-opacity=".588235"/></svg>

<?xml version="1.0" encoding="UTF-8"?>
<svg xmlns="http://www.w3.org/2000/svg" xmlns:xlink="http://www.w3.org/1999/xlink" width="48pt" height="48pt" viewBox="0 0 48 48" version="1.1">
<defs>
<linearGradient id="linear0" gradientUnits="userSpaceOnUse" x1="254" y1="233.5" x2="254" y2="254.666672" gradientTransform="matrix(0.093759,0,0,0.093759,-0.00000572259,20.158178)">
<stop offset="0" style="stop-color:rgb(0%,0%,0%);stop-opacity:0.27451;"/>
<stop offset="1" style="stop-color:rgb(0%,0%,0%);stop-opacity:0;"/>
</linearGradient>
<radialGradient id="radial0" gradientUnits="userSpaceOnUse" cx="450.908936" cy="189.579361" fx="450.908936" fy="189.579361" r="21.166656" gradientTransform="matrix(0.000000261256,-0.117199,-0.210958,-0.000000152308,79.684395,95.392999)">
<stop offset="0" style="stop-color:rgb(0%,0%,0%);stop-opacity:0.313726;"/>
<stop offset="0.222222" style="stop-color:rgb(0%,0%,0%);stop-opacity:0.27451;"/>
<stop offset="1" style="stop-color:rgb(0%,0%,0%);stop-opacity:0;"/>
</radialGradient>
<radialGradient id="radial1" gradientUnits="userSpaceOnUse" cx="450.908936" cy="189.579361" fx="450.908936" fy="189.579361" r="21.166656" gradientTransform="matrix(-0.000000261256,0.117199,0.210958,0.000000152308,-31.80678,-11.291218)">
<stop offset="0" style="stop-color:rgb(0%,0%,0%);stop-opacity:0.313726;"/>
<stop offset="0.222222" style="stop-color:rgb(0%,0%,0%);stop-opacity:0.27451;"/>
<stop offset="1" style="stop-color:rgb(0%,0%,0%);stop-opacity:0;"/>
</radialGradient>
<radialGradient id="radial2" gradientUnits="userSpaceOnUse" cx="450.908936" cy="189.579361" fx="450.908936" fy="189.579361" r="21.166656" gradientTransform="matrix(-0.000000261256,-0.117199,0.210958,-0.000000152308,-31.80678,95.392999)">
<stop offset="0" style="stop-color:rgb(0%,0%,0%);stop-opacity:0.313726;"/>
<stop offset="0.222222" style="stop-color:rgb(0%,0%,0%);stop-opacity:0.27451;"/>
<stop offset="1" style="stop-color:rgb(0%,0%,0%);stop-opacity:0;"/>
</radialGradient>
<radialGradient id="radial3" gradientUnits="userSpaceOnUse" cx="450.908936" cy="189.579361" fx="450.908936" fy="189.579361" r="21.166656" gradientTransform="matrix(0.000000261256,0.117199,-0.210958,0.000000152308,79.684393,-11.291219)">
<stop offset="0" style="stop-color:rgb(0%,0%,0%);stop-opacity:0.313726;"/>
<stop offset="0.222222" style="stop-color:rgb(0%,0%,0%);stop-opacity:0.27451;"/>
<stop offset="1" style="stop-color:rgb(0%,0%,0%);stop-opacity:0;"/>
</radialGradient>
<linearGradient id="linear1" gradientUnits="userSpaceOnUse" x1="254" y1="233.5" x2="254" y2="-168.666656" gradientTransform="matrix(0.093759,0,0,0.093759,0,20.158175)">
<stop offset="0" style="stop-color:rgb(63.137257%,53.333336%,49.803922%);stop-opacity:1;"/>
<stop offset="1" style="stop-color:rgb(73.725492%,66.666669%,64.313728%);stop-opacity:1;"/>
</linearGradient>
<linearGradient id="linear2" gradientUnits="userSpaceOnUse" x1="254" y1="233.5" x2="254" y2="-168.666656" gradientTransform="matrix(0.0848295,0,0,0.0838896,2.268074,20.478107)">
<stop offset="0" style="stop-color:rgb(36.078432%,41.960785%,75.294119%);stop-opacity:1;"/>
<stop offset="1" style="stop-color:rgb(47.450981%,52.549022%,79.607844%);stop-opacity:1;"/>
</linearGradient>
</defs>
<g id="surface1">
<path style=" stroke:none;fill-rule:nonzero;fill:url(#linear0);" d="M 7.691406 42.050781 L 40.1875 42.050781 L 40.1875 44.035156 L 7.691406 44.035156 Z M 7.691406 42.050781 "/>
<path style=" stroke:none;fill-rule:nonzero;fill:url(#radial0);" d="M 40.1875 42.050781 L 44.15625 42.050781 L 44.15625 40.066406 L 40.1875 40.066406 Z M 40.1875 42.050781 "/>
<path style=" stroke:none;fill-rule:nonzero;fill:url(#radial1);" d="M 7.691406 42.050781 L 3.722656 42.050781 L 3.722656 44.035156 L 7.691406 44.035156 Z M 7.691406 42.050781 "/>
<path style=" stroke:none;fill-rule:nonzero;fill:url(#radial2);" d="M 7.691406 42.050781 L 3.722656 42.050781 L 3.722656 40.066406 L 7.691406 40.066406 Z M 7.691406 42.050781 "/>
<path style=" stroke:none;fill-rule:nonzero;fill:url(#radial3);" d="M 40.1875 42.050781 L 44.15625 42.050781 L 44.15625 44.035156 L 40.1875 44.035156 Z M 40.1875 42.050781 "/>
<path style=" stroke:none;fill-rule:nonzero;fill:url(#linear1);" d="M 4.960938 4.34375 L 42.667969 4.34375 C 43.765625 4.34375 44.652344 5.234375 44.652344 6.328125 L 44.652344 40.066406 C 44.652344 41.164062 43.765625 42.050781 42.667969 42.050781 L 4.960938 42.050781 C 3.867188 42.050781 2.976562 41.164062 2.976562 40.066406 L 2.976562 6.328125 C 2.976562 5.234375 3.867188 4.34375 4.960938 4.34375 Z M 4.960938 4.34375 "/>
<path style=" stroke:none;fill-rule:nonzero;fill:rgb(98.431373%,98.431373%,98.431373%);fill-opacity:0.392157;" d="M 4.960938 4.34375 C 3.863281 4.34375 2.976562 5.230469 2.976562 6.328125 L 2.976562 6.824219 C 2.976562 5.726562 3.863281 4.839844 4.960938 4.839844 L 42.667969 4.839844 C 43.769531 4.839844 44.652344 5.726562 44.652344 6.824219 L 44.652344 6.328125 C 44.652344 5.230469 43.769531 4.34375 42.667969 4.34375 Z M 4.960938 4.34375 "/>
<path style=" stroke:none;fill-rule:nonzero;fill:rgb(0%,0%,0%);fill-opacity:0.235294;" d="M 4.960938 42.050781 C 3.863281 42.050781 2.976562 41.164062 2.976562 40.066406 L 2.976562 39.570312 C 2.976562 40.667969 3.863281 41.554688 4.960938 41.554688 L 42.667969 41.554688 C 43.769531 41.554688 44.652344 40.667969 44.652344 39.570312 L 44.652344 40.066406 C 44.652344 41.164062 43.769531 42.050781 42.667969 42.050781 Z M 4.960938 42.050781 "/>
<path style=" stroke:none;fill-rule:nonzero;fill:rgb(12.941177%,12.941177%,12.941177%);fill-opacity:1;" d="M 4.960938 4.203125 C 3.785156 4.203125 2.835938 5.152344 2.835938 6.328125 L 2.835938 40.066406 C 2.835938 41.242188 3.785156 42.191406 4.960938 42.191406 L 42.667969 42.191406 C 43.84375 42.191406 44.792969 41.242188 44.792969 40.066406 L 44.792969 6.328125 C 44.792969 5.152344 43.84375 4.203125 42.667969 4.203125 Z M 4.960938 4.484375 L 42.667969 4.484375 C 43.691406 4.484375 44.511719 5.304688 44.511719 6.328125 L 44.511719 40.066406 C 44.511719 41.089844 43.691406 41.910156 42.667969 41.910156 L 4.960938 41.910156 C 3.9375 41.910156 3.117188 41.089844 3.117188 40.066406 L 3.117188 6.328125 C 3.117188 5.304688 3.9375 4.484375 4.960938 4.484375 Z M 4.960938 4.484375 "/>
<path style=" stroke:none;fill-rule:nonzero;fill:url(#linear2);" d="M 6.449219 6.328125 L 41.179688 6.328125 C 42 6.328125 42.667969 6.996094 42.667969 7.816406 L 42.667969 38.578125 C 42.667969 39.398438 42 40.066406 41.179688 40.066406 L 6.449219 40.066406 C 5.628906 40.066406 4.960938 39.398438 4.960938 38.578125 L 4.960938 7.816406 C 4.960938 6.996094 5.628906 6.328125 6.449219 6.328125 Z M 6.449219 6.328125 "/>
<path style=" stroke:none;fill-rule:nonzero;fill:rgb(100%,100%,100%);fill-opacity:0.392157;" d="M 4.960938 38.578125 L 4.960938 39.074219 C 4.960938 39.898438 5.625 40.5625 6.449219 40.5625 L 41.179688 40.5625 C 42.003906 40.5625 42.667969 39.898438 42.667969 39.074219 L 42.667969 38.578125 C 42.667969 39.402344 42.003906 40.066406 41.179688 40.066406 L 6.449219 40.066406 C 5.625 40.066406 4.960938 39.402344 4.960938 38.578125 Z M 4.960938 38.578125 "/>
<path style=" stroke:none;fill-rule:nonzero;fill:rgb(0%,0%,0%);fill-opacity:0.235294;" d="M 6.449219 6.328125 C 5.625 6.328125 4.960938 6.992188 4.960938 7.816406 L 4.960938 8.5625 C 4.960938 7.738281 5.625 7.074219 6.449219 7.074219 L 41.179688 7.074219 C 42.003906 7.074219 42.667969 7.738281 42.667969 8.5625 L 42.667969 7.816406 C 42.667969 6.992188 42.003906 6.328125 41.179688 6.328125 Z M 6.449219 6.328125 "/>
<path style="fill:none;stroke-width:3;stroke-linecap:round;stroke-linejoin:round;stroke:rgb(12.941177%,12.941177%,12.941177%);stroke-opacity:1;stroke-miterlimit:4;" d="M 68.785098 -147.506445 L 439.208058 -147.506445 C 447.957222 -147.506445 455.081542 -140.382126 455.081542 -131.632961 L 455.081542 196.460707 C 455.081542 205.209872 447.957222 212.334192 439.208058 212.334192 L 68.785098 212.334192 C 60.035934 212.334192 52.911614 205.209872 52.911614 196.460707 L 52.911614 -131.632961 C 52.911614 -140.382126 60.035934 -147.506445 68.785098 -147.506445 Z M 68.785098 -147.506445 " transform="matrix(0.093759,0,0,0.093759,0,20.158175)"/>
<path style=" stroke:none;fill-rule:nonzero;fill:rgb(100%,100%,100%);fill-opacity:0.588235;" d="M 19.84375 16.5 C 16.25 16.5 13.308594 19.207031 12.9375 22.703125 L 10.914062 22.703125 L 10.914062 24.191406 L 12.9375 24.191406 C 13.308594 27.683594 16.25 30.390625 19.84375 30.390625 C 23.441406 30.390625 26.382812 27.683594 26.753906 24.191406 L 32.746094 24.191406 L 32.746094 26.917969 C 32.746094 27.195312 32.964844 27.414062 33.242188 27.414062 L 33.738281 27.414062 C 34.011719 27.414062 34.234375 27.195312 34.234375 26.917969 L 34.234375 19.722656 C 34.234375 19.449219 34.011719 19.226562 33.738281 19.226562 L 33.242188 19.226562 C 32.964844 19.226562 32.746094 19.449219 32.746094 19.722656 L 32.746094 22.703125 L 26.753906 22.703125 C 26.382812 19.207031 23.441406 16.5 19.84375 16.5 Z M 19.84375 17.988281 C 21.085938 17.988281 22.230469 18.398438 23.144531 19.09375 L 19.84375 22.394531 L 16.546875 19.09375 C 17.460938 18.398438 18.601562 17.988281 19.84375 17.988281 Z M 15.492188 20.144531 L 18.792969 23.445312 L 15.492188 26.746094 C 14.800781 25.832031 14.386719 24.6875 14.386719 23.445312 C 14.386719 22.203125 14.800781 21.0625 15.492188 20.144531 Z M 24.199219 20.144531 C 24.890625 21.0625 25.304688 22.203125 25.304688 23.445312 C 25.304688 24.6875 24.890625 25.832031 24.199219 26.746094 L 20.898438 23.445312 Z M 35.722656 20.46875 C 35.449219 20.46875 35.226562 20.691406 35.226562 20.964844 L 35.226562 25.925781 C 35.226562 26.199219 35.449219 26.421875 35.722656 26.421875 L 36.21875 26.421875 C 36.492188 26.421875 36.714844 26.199219 36.714844 25.925781 L 36.714844 20.964844 C 36.714844 20.691406 36.492188 20.46875 36.21875 20.46875 Z M 19.84375 24.5 L 23.144531 27.796875 C 22.230469 28.492188 21.085938 28.902344 19.84375 28.902344 C 18.601562 28.902344 17.460938 28.492188 16.546875 27.796875 Z M 19.84375 24.5 "/>
</g>
</svg>
